X: 30895
T: Oven, The
R: reel
M: 4/4
K: Eminor
|:"Em"BEEE EDEG|BEEE "C"c2 BA|"Em"BEEE EDEG|"G"DEGD "slide" "D"A4|
"Em"BEEE EDEG|BEEE "C"c2 BA|"G"'~G3 A B"D"dBA|"G"GFGF "Em"E2~E2:|
|:"C"Beee deee|geae "D"beae|"C"Beee deee|geae "D"b4|
"C"Beee deee|geae "D"beae|beae "G"gedB|"D"AF"G"GF "Em"E2~E2:|

